outputs/icons/general/to_do_outline_round.svg

<svg xmlns="http://www.w3.org/2000/svg" width="1200" height="1200" fill="none"><g clip-path="url(#a)"><path stroke="#1D1E23" stroke-width="75" d="M1162.5 37.5v1125H37.5V37.5zm-900 1000h675v-625h-250v-250h-425zm37.5-975c-37.524 0-70.56 13.821-97.119 40.381-26.56 26.56-40.381 59.594-40.381 97.119v800c0 37.525 13.821 70.56 40.381 97.12s59.595 40.38 97.119 40.38h600c37.525 0 70.56-13.82 97.12-40.38s40.38-59.595 40.38-97.12V384.472L715.525 62.5zm562.5 900h-525V743.02l210.01 210.005 26.515-26.51 282.47-282.52 6.005-6.005zm-85.545-345.02L547.46 846.925 423.047 722.51l18.213-18.215 104.98 104.98 26.515-26.51L757.47 598zM612.5 237.5v250h250v109.425l-6.005-5.96-72.46-72.46-26.515-26.562-26.515 26.562-184.765 184.72-78.466-78.47-26.514-26.56-26.514 26.56-71.24 71.24-6.006 5.96V237.5zm-375-37.5c0-17.476 5.802-31.485 18.408-44.092S282.524 137.5 300 137.5h384.475L962.5 415.527V1000c0 17.475-5.8 31.485-18.41 44.09-12.605 12.61-26.615 18.41-44.09 18.41H300c-17.476 0-31.485-5.8-44.092-18.41-12.606-12.605-18.408-26.615-18.408-44.09z"/></g><defs><clipPath id="a"><path fill="#fff" d="M0 0h1200v1200H0z"/></clipPath></defs></svg>

<svg width="1200" height="1200" viewBox="0 0 1200 1200" fill="none" xmlns="http://www.w3.org/2000/svg"><g clip-path="url(#clip0_8207_23)"><path d="M1162.5 37.5V1162.5H37.5V37.5H1162.5ZM262.5 1037.5H937.5V412.5H687.5V162.5H262.5V1037.5ZM300 62.5C262.476 62.5 229.44 76.321 202.881 102.881C176.321 129.441 162.5 162.475 162.5 200V1000C162.5 1037.525 176.321 1070.56 202.881 1097.12C229.441 1123.68 262.476 1137.5 300 1137.5H900C937.525 1137.5 970.56 1123.68 997.12 1097.12C1023.68 1070.56 1037.5 1037.525 1037.5 1000V384.472L715.525 62.5H300ZM862.5 962.5H337.5V743.02L547.51 953.025L574.025 926.515L856.495 643.995L862.5 637.99V962.5ZM776.955 617.48L547.46 846.925L423.047 722.51L441.26 704.295L546.24 809.275L572.755 782.765L757.47 598L776.955 617.48ZM612.5 237.5V487.5H862.5V596.925L856.495 590.965L784.035 518.505L757.52 491.943L731.005 518.505L546.24 703.225L467.774 624.755L441.26 598.195L414.746 624.755L343.506 695.995L337.5 701.955V237.5H612.5ZM237.5 200C237.5 182.524 243.302 168.515 255.908 155.908C268.515 143.302 282.524 137.5 300 137.5H684.475L962.5 415.527V1000C962.5 1017.475 956.7 1031.485 944.09 1044.09C931.485 1056.7 917.475 1062.5 900 1062.5H300C282.524 1062.5 268.515 1056.7 255.908 1044.09C243.302 1031.485 237.5 1017.475 237.5 1000V200Z" stroke="#1D1E23" stroke-width="75"/></g><defs><clipPath id="clip0_8207_23"><path width="24" fill="white" d="M0 0H1200V1200H0V0z"/></clipPath></defs></svg>
